X:1
T:Title
%%score { ( 1 3 ) | ( 2 4 ) }
L:1/8
M:9/8
K:E
V:1 treble nm="Grand Piano"
V:3 treble 
V:2 bass 
V:4 bass 
V:1
 z3 z3[Q:1/4=100] B,CD | F3 E3 EFG | [CB]3 [CA]3 [CFA][B,EG][A,CF] | %3
 [G,B,E]3 [B,EG]3 [DB][DF][EG] | E6 B,CD | F3 E3 EFG | B3 A3 ^AGF | [Dd]3 [DFB]3 [CE^A][CEG][CEA] | %8
[M:3/4] [B,DB]6 |[M:3/8] [DB][DA][F,D] |[M:9/8] [B,DG]3 [A,DF]3 [A,DF][B,DG][A,B,] | %11
 [G,B,]2 C E3 [DB][DA][DF] | [Fd]3 [DAc]3 [DAB][DAc][DAB] | [EGB]6 [B,DB][B,DA][B,D] | %14
 [B,DG]3 [A,DF]3 EEE | e3 e3 edc | B3 [Ge]3 [B,EG][G,B,E][A,DF] |[M:3/4] [G,E]6 |] %18
V:2
 z3 z3 B,,[B,,^A,B,][B,,=A,B,] | [E,A,B,]3 [E,G,B,]3 [E,G,][E,A,D][E,B,=D] | %2
 [A,,A,]3 [A,,A,]3 F,,G,,A,, | B,,3 B,,3 [B,,F,][B,,A,][B,,B,] | [E,G,]6 B,,[B,,^A,B,][B,,=A,B,] | %5
 [E,A,B,]3 [E,G,B,]3 [E,G,][E,A,D][E,B,=D] | [A,C]3 [A,C]3 [F,CE][F,B,E][F,^A,E] | %7
 [B,,B,]3 B,,3 F,F,F, |[M:3/4] B,,6 |[M:3/8] [B,,F,][B,,F,]B,, |[M:9/8] B,,3 B,,3 B,,B,,B,, | %11
 z2 A, [E,G,B,]3 [B,,F,][B,,F,][B,,B,] | [B,,B,]3 B,,3 B,,B,,B,, | E,6 F,F,F, | %14
 B,,3 B,,3 [E,G,][F,A,][G,B,] | [A,CE]3 [A,CF]3 [^A,CF][A,DF][A,EF] | %16
 [B,EG]3[K:bass] [E,B,]3 B,,B,,B,, |[M:3/4] E,6 |] %18
V:3
 x9 | x9 | x9 | x9 | x9 | x9 | x9 | x9 |[M:3/4] x6 |[M:3/8] x3 |[M:9/8] x9 | E3 z3 z3 | x9 | x9 | %14
 x9 | x9 | x9 |[M:3/4] x6 |] %18
V:4
 x9 | x9 | x9 | x9 | x9 | x9 | x9 | x9 |[M:3/4] x6 |[M:3/8] x3 |[M:9/8] x9 | E,3 z3 z3 | x9 | x9 | %14
 x9 | x9 | x3[K:bass] x6 |[M:3/4] x6 |] %18

